assets/luts/nlog_to_rec709.cube
TITLE "N-Log to Rec.709 (builtin approx)"
LUT_3D_SIZE 9
LUT_3D_INPUT_RANGE 0.0 1.0
0.000000 0.000000 0.000000
0.021671 0.000000 0.000000
0.267119 0.000000 0.000000
0.465302 0.000000 0.000000
0.751396 0.000000 0.000000
1.000000 0.000000 0.000000
1.000000 0.000000 0.000000
1.000000 0.000000 0.000000
1.000000 0.000000 0.000000
0.000000 0.020661 0.000000
0.020234 0.020234 0.000000
0.265682 0.015397 0.000000
0.463865 0.011491 0.000000
0.749959 0.005853 0.000000
1.000000 0.000000 0.000000
1.000000 0.000000 0.000000
1.000000 0.000000 0.000000
1.000000 0.000000 0.000000
0.000000 0.254673 0.000000
0.003961 0.254246 0.000000
0.249409 0.249409 0.000000
0.447592 0.245503 0.000000
0.733686 0.239865 0.000000
1.000000 0.231601 0.000000
1.000000 0.219417 0.000000
1.000000 0.201408 0.000000
1.000000 0.174763 0.000000
0.000000 0.443623 0.000000
0.000000 0.443196 0.000000
0.236269 0.438358 0.000000
0.434453 0.434453 0.000000
0.720547 0.428814 0.000000
1.000000 0.420551 0.000000
1.000000 0.408367 0.000000
1.000000 0.390358 0.000000
1.000000 0.363712 0.000000
0.000000 0.716388 0.000000
0.000000 0.715960 0.000000
0.217301 0.711123 0.000000
0.415485 0.707217 0.000000
0.701579 0.701579 0.000000
1.000000 0.693315 0.000000
1.000000 0.681131 0.000000
1.000000 0.663122 0.000000
1.000000 0.636477 0.000000
0.000000 1.000000 0.000000
0.000000 1.000000 0.000000
0.189502 1.000000 0.000000
0.387685 1.000000 0.000000
0.673780 1.000000 0.000000
1.000000 1.000000 0.000000
1.000000 1.000000 0.000000
1.000000 1.000000 0.000000
1.000000 1.000000 0.000000
0.000000 1.000000 0.000000
0.000000 1.000000 0.000000
0.148514 1.000000 0.000000
0.346697 1.000000 0.000000
0.632792 1.000000 0.000000
1.000000 1.000000 0.000000
1.000000 1.000000 0.000000
1.000000 1.000000 0.000000
1.000000 1.000000 0.000000
0.000000 1.000000 0.000000
0.000000 1.000000 0.000000
0.087931 1.000000 0.000000
0.286114 1.000000 0.000000
0.572209 1.000000 0.000000
0.991506 1.000000 0.000000
1.000000 1.000000 0.000000
1.000000 1.000000 0.000000
1.000000 1.000000 0.000000
0.000000 1.000000 0.000000
0.000000 1.000000 0.000000
0.000000 1.000000 0.000000
0.196477 1.000000 0.000000
0.482571 1.000000 0.000000
0.901868 1.000000 0.000000
1.000000 1.000000 0.000000
1.000000 1.000000 0.000000
1.000000 1.000000 0.000000
0.000000 0.000000 0.021953
0.021526 0.000000 0.021526
0.266974 0.000000 0.016689
0.465157 0.000000 0.012783
0.751251 0.000000 0.007145
1.000000 0.000000 0.000000
1.000000 0.000000 0.000000
1.000000 0.000000 0.000000
1.000000 0.000000 0.000000
0.000000 0.020516 0.020516
0.020089 0.020089 0.020089
0.265537 0.015252 0.015252
0.463720 0.011346 0.011346
0.749814 0.005708 0.005708
1.000000 0.000000 0.000000
1.000000 0.000000 0.000000
1.000000 0.000000 0.000000
1.000000 0.000000 0.000000
0.000000 0.254528 0.004243
0.003816 0.254101 0.003816
0.249264 0.249264 0.000000
0.447447 0.245358 0.000000
0.733541 0.239719 0.000000
1.000000 0.231456 0.000000
1.000000 0.219272 0.000000
1.000000 0.201263 0.000000
1.000000 0.174617 0.000000
0.000000 0.443478 0.000000
0.000000 0.443051 0.000000
0.236124 0.438213 0.000000
0.434308 0.434308 0.000000
0.720402 0.428669 0.000000
1.000000 0.420406 0.000000
1.000000 0.408222 0.000000
1.000000 0.390213 0.000000
1.000000 0.363567 0.000000
0.000000 0.716243 0.000000
0.000000 0.715815 0.000000
0.217156 0.710978 0.000000
0.415340 0.707072 0.000000
0.701434 0.701434 0.000000
1.000000 0.693170 0.000000
1.000000 0.680986 0.000000
1.000000 0.662977 0.000000
1.000000 0.636332 0.000000
0.000000 1.000000 0.000000
0.000000 1.000000 0.000000
0.189357 1.000000 0.000000
0.387540 1.000000 0.000000
0.673635 1.000000 0.000000
1.000000 1.000000 0.000000
1.000000 1.000000 0.000000
1.000000 1.000000 0.000000
1.000000 1.000000 0.000000
0.000000 1.000000 0.000000
0.000000 1.000000 0.000000
0.148369 1.000000 0.000000
0.346552 1.000000 0.000000
0.632647 1.000000 0.000000
1.000000 1.000000 0.000000
1.000000 1.000000 0.000000
1.000000 1.000000 0.000000
1.000000 1.000000 0.000000
0.000000 1.000000 0.000000
0.000000 1.000000 0.000000
0.087786 1.000000 0.000000
0.285969 1.000000 0.000000
0.572064 1.000000 0.000000
0.991361 1.000000 0.000000
1.000000 1.000000 0.000000
1.000000 1.000000 0.000000
1.000000 1.000000 0.000000
0.000000 1.000000 0.000000
0.000000 1.000000 0.000000
0.000000 1.000000 0.000000
0.196332 1.000000 0.000000
0.482426 1.000000 0.000000
0.901723 1.000000 0.000000
1.000000 1.000000 0.000000
1.000000 1.000000 0.000000
1.000000 1.000000 0.000000
0.000000 0.000000 0.270595
0.019883 0.000000 0.270168
0.265331 0.000000 0.265331
0.463514 0.000000 0.261425
0.749608 0.000000 0.255787
1.000000 0.000000 0.247523
1.000000 0.000000 0.235339
1.000000 0.000000 0.217330
1.000000 0.000000 0.190685
0.000000 0.018874 0.269158
0.018447 0.018447 0.268731
0.263894 0.013609 0.263894
0.462077 0.009703 0.259988
0.748172 0.004065 0.254350
1.000000 0.000000 0.246086
1.000000 0.000000 0.233902
1.000000 0.000000 0.215893
1.000000 0.000000 0.189248
0.000000 0.252885 0.252885
0.002173 0.252458 0.252458
0.247621 0.247621 0.247621
0.445804 0.243715 0.243715
0.731898 0.238077 0.238077
1.000000 0.229813 0.229813
1.000000 0.217629 0.217629
1.000000 0.199620 0.199620
1.000000 0.172975 0.172975
0.000000 0.441835 0.239746
0.000000 0.441408 0.239319
0.234481 0.436571 0.234481
0.432665 0.432665 0.230576
0.718759 0.427026 0.224937
1.000000 0.418763 0.216674
1.000000 0.406579 0.204490
1.000000 0.388570 0.186481
1.000000 0.361924 0.159835
0.000000 0.714600 0.220778
0.000000 0.714173 0.220351
0.215514 0.709335 0.215514
0.413697 0.705429 0.211608
0.699791 0.699791 0.205969
1.000000 0.691527 0.197706
1.000000 0.679343 0.185522
1.000000 0.661335 0.167513
1.000000 0.634689 0.140867
0.000000 1.000000 0.192979
0.000000 1.000000 0.192552
0.187714 1.000000 0.187714
0.385898 1.000000 0.183809
0.671992 1.000000 0.178170
1.000000 1.000000 0.169907
1.000000 1.000000 0.157722
1.000000 1.000000 0.139714
1.000000 1.000000 0.113068
0.000000 1.000000 0.151991
0.000000 1.000000 0.151564
0.146726 1.000000 0.146726
0.344910 1.000000 0.142821
0.631004 1.000000 0.137182
1.000000 1.000000 0.128919
1.000000 1.000000 0.116734
1.000000 1.000000 0.098726
1.000000 1.000000 0.072080
0.000000 1.000000 0.091408
0.000000 1.000000 0.090981
0.086143 1.000000 0.086143
0.284327 1.000000 0.082237
0.570421 1.000000 0.076599
0.989718 1.000000 0.068336
1.000000 1.000000 0.056151
1.000000 1.000000 0.038143
1.000000 1.000000 0.011497
0.000000 1.000000 0.001771
0.000000 1.000000 0.001343
0.000000 1.000000 0.000000
0.194689 1.000000 0.000000
0.480784 1.000000 0.000000
0.900081 1.000000 0.000000
1.000000 1.000000 0.000000
1.000000 1.000000 0.000000
1.000000 1.000000 0.000000
0.000000 0.000000 0.471358
0.018557 0.000000 0.470931
0.264004 0.000000 0.466094
0.462188 0.000000 0.462188
0.748282 0.000000 0.456549
1.000000 0.000000 0.448286
1.000000 0.000000 0.436102
1.000000 0.000000 0.418093
1.000000 0.000000 0.391447
0.000000 0.017547 0.469921
0.017120 0.017120 0.469494
0.262568 0.012283 0.464657
0.460751 0.008377 0.460751
0.746845 0.002739 0.455112
1.000000 0.000000 0.446849
1.000000 0.000000 0.434665
1.000000 0.000000 0.416656
1.000000 0.000000 0.390010
0.000000 0.251559 0.453648
0.000847 0.251132 0.453221
0.246295 0.246295 0.448384
0.444478 0.242389 0.444478
0.730572 0.236750 0.438839
1.000000 0.228487 0.430576
1.000000 0.216303 0.418392
1.000000 0.198294 0.400383
1.000000 0.171648 0.373737
0.000000 0.440509 0.440509
0.000000 0.440082 0.440082
0.233155 0.435244 0.435244
0.431338 0.431338 0.431338
0.717433 0.425700 0.425700
1.000000 0.417436 0.417436
1.000000 0.405252 0.405252
1.000000 0.387243 0.387243
1.000000 0.360598 0.360598
0.000000 0.713273 0.421541
0.000000 0.712846 0.421114
0.214187 0.708009 0.416276
0.412370 0.704103 0.412370
0.698465 0.698465 0.406732
1.000000 0.690201 0.398468
1.000000 0.678017 0.386284
1.000000 0.660008 0.368276
1.000000 0.633363 0.341630
0.000000 1.000000 0.393741
0.000000 1.000000 0.393314
0.186388 1.000000 0.388477
0.384571 1.000000 0.384571
0.670665 1.000000 0.378933
1.000000 1.000000 0.370669
1.000000 1.000000 0.358485
1.000000 1.000000 0.340476
1.000000 1.000000 0.313831
0.000000 1.000000 0.352753
0.000000 1.000000 0.352326
0.145400 1.000000 0.347489
0.343583 1.000000 0.343583
0.629677 1.000000 0.337945
1.000000 1.000000 0.329681
1.000000 1.000000 0.317497
1.000000 1.000000 0.299488
1.000000 1.000000 0.272843
0.000000 1.000000 0.292170
0.000000 1.000000 0.291743
0.084817 1.000000 0.286906
0.283000 1.000000 0.283000
0.569094 1.000000 0.277362
0.988391 1.000000 0.269098
1.000000 1.000000 0.256914
1.000000 1.000000 0.238905
1.000000 1.000000 0.212260
0.000000 1.000000 0.202533
0.000000 1.000000 0.202106
0.000000 1.000000 0.197269
0.193363 1.000000 0.193363
0.479457 1.000000 0.187725
0.898754 1.000000 0.179461
1.000000 1.000000 0.167277
1.000000 1.000000 0.149268
1.000000 1.000000 0.122623
0.000000 0.000000 0.761176
0.016642 0.000000 0.760749
0.262090 0.000000 0.755911
0.460273 0.000000 0.752005
0.746367 0.000000 0.746367
1.000000 0.000000 0.738103
1.000000 0.000000 0.725919
1.000000 0.000000 0.707911
1.000000 0.000000 0.681265
0.000000 0.015632 0.759739
0.015205 0.015205 0.759312
0.260653 0.010368 0.754474
0.458836 0.006462 0.750569
0.744930 0.000824 0.744930
1.000000 0.000000 0.736667
1.000000 0.000000 0.724483
1.000000 0.000000 0.706474
1.000000 0.000000 0.679828
0.000000 0.249644 0.743466
0.000000 0.249217 0.743039
0.244380 0.244380 0.738201
0.442563 0.240474 0.734296
0.728657 0.234835 0.728657
1.000000 0.226572 0.720394
1.000000 0.214388 0.708210
1.000000 0.196379 0.690201
1.000000 0.169733 0.663555
0.000000 0.438594 0.730326
0.000000 0.438167 0.729899
0.231240 0.433329 0.725062
0.429424 0.429424 0.721156
0.715518 0.423785 0.715518
1.000000 0.415522 0.707254
1.000000 0.403337 0.695070
1.000000 0.385329 0.677061
1.000000 0.358683 0.650416
0.000000 0.711358 0.711358
0.000000 0.710931 0.710931
0.212272 0.706094 0.706094
0.410456 0.702188 0.702188
0.696550 0.696550 0.696550
1.000000 0.688286 0.688286
1.000000 0.676102 0.676102
1.000000 0.658093 0.658093
1.000000 0.631448 0.631448
0.000000 1.000000 0.683559
0.000000 1.000000 0.683132
0.184473 1.000000 0.678295
0.382656 1.000000 0.674389
0.668751 1.000000 0.668751
1.000000 1.000000 0.660487
1.000000 1.000000 0.648303
1.000000 1.000000 0.630294
1.000000 1.000000 0.603649
0.000000 1.000000 0.642571
0.000000 1.000000 0.642144
0.143485 1.000000 0.637307
0.341668 1.000000 0.633401
0.627763 1.000000 0.627763
1.000000 1.000000 0.619499
1.000000 1.000000 0.607315
1.000000 1.000000 0.589306
1.000000 1.000000 0.562661
0.000000 1.000000 0.581988
0.000000 1.000000 0.581561
0.082902 1.000000 0.576724
0.281085 1.000000 0.572818
0.567180 1.000000 0.567180
0.986477 1.000000 0.558916
1.000000 1.000000 0.546732
1.000000 1.000000 0.528723
1.000000 1.000000 0.502078
0.000000 1.000000 0.492351
0.000000 1.000000 0.491924
0.000000 1.000000 0.487087
0.191448 1.000000 0.483181
0.477542 1.000000 0.477542
0.896839 1.000000 0.469279
1.000000 1.000000 0.457095
1.000000 1.000000 0.439086
1.000000 1.000000 0.412440
0.000000 0.000000 1.000000
0.013836 0.000000 1.000000
0.259283 0.000000 1.000000
0.457466 0.000000 1.000000
0.743561 0.000000 1.000000
1.000000 0.000000 1.000000
1.000000 0.000000 1.000000
1.000000 0.000000 1.000000
1.000000 0.000000 1.000000
0.000000 0.012826 1.000000
0.012399 0.012399 1.000000
0.257846 0.007562 1.000000
0.456030 0.003656 1.000000
0.742124 0.000000 1.000000
1.000000 0.000000 1.000000
1.000000 0.000000 1.000000
1.000000 0.000000 1.000000
1.000000 0.000000 1.000000
0.000000 0.246838 1.000000
0.000000 0.246411 1.000000
0.241573 0.241573 1.000000
0.439757 0.237667 1.000000
0.725851 0.232029 1.000000
1.000000 0.223766 1.000000
1.000000 0.211581 1.000000
1.000000 0.193573 1.000000
1.000000 0.166927 1.000000
0.000000 0.435787 1.000000
0.000000 0.435360 1.000000
0.228434 0.430523 1.000000
0.426617 0.426617 1.000000
0.712711 0.420979 1.000000
1.000000 0.412715 1.000000
1.000000 0.400531 1.000000
1.000000 0.382522 1.000000
1.000000 0.355877 1.000000
0.000000 0.708552 1.000000
0.000000 0.708125 1.000000
0.209466 0.703288 1.000000
0.407649 0.699382 1.000000
0.693743 0.693743 1.000000
1.000000 0.685480 1.000000
1.000000 0.673296 1.000000
1.000000 0.655287 1.000000
1.000000 0.628641 1.000000
0.000000 1.000000 1.000000
0.000000 1.000000 1.000000
0.181667 1.000000 1.000000
0.379850 1.000000 1.000000
0.665944 1.000000 1.000000
1.000000 1.000000 1.000000
1.000000 1.000000 1.000000
1.000000 1.000000 1.000000
1.000000 1.000000 1.000000
0.000000 1.000000 1.000000
0.000000 1.000000 1.000000
0.140679 1.000000 1.000000
0.338862 1.000000 1.000000
0.624956 1.000000 1.000000
1.000000 1.000000 1.000000
1.000000 1.000000 1.000000
1.000000 1.000000 1.000000
1.000000 1.000000 0.987415
0.000000 1.000000 1.000000
0.000000 1.000000 1.000000
0.080096 1.000000 1.000000
0.278279 1.000000 0.997572
0.564373 1.000000 0.991934
0.983670 1.000000 0.983670
1.000000 1.000000 0.971486
1.000000 1.000000 0.953477
1.000000 1.000000 0.926832
0.000000 1.000000 0.917105
0.000000 1.000000 0.916678
0.000000 1.000000 0.911841
0.188642 1.000000 0.907935
0.474736 1.000000 0.902297
0.894033 1.000000 0.894033
1.000000 1.000000 0.881849
1.000000 1.000000 0.863840
1.000000 1.000000 0.837195
0.000000 0.000000 1.000000
0.009698 0.000000 1.000000
0.255145 0.000000 1.000000
0.453329 0.000000 1.000000
0.739423 0.000000 1.000000
1.000000 0.000000 1.000000
1.000000 0.000000 1.000000
1.000000 0.000000 1.000000
1.000000 0.000000 1.000000
0.000000 0.008688 1.000000
0.008261 0.008261 1.000000
0.253709 0.003424 1.000000
0.451892 0.000000 1.000000
0.737986 0.000000 1.000000
1.000000 0.000000 1.000000
1.000000 0.000000 1.000000
1.000000 0.000000 1.000000
1.000000 0.000000 1.000000
0.000000 0.242700 1.000000
0.000000 0.242273 1.000000
0.237436 0.237436 1.000000
0.435619 0.233530 1.000000
0.721713 0.227891 1.000000
1.000000 0.219628 1.000000
1.000000 0.207444 1.000000
1.000000 0.189435 1.000000
1.000000 0.162789 1.000000
0.000000 0.431650 1.000000
0.000000 0.431223 1.000000
0.224296 0.426385 1.000000
0.422479 0.422479 1.000000
0.708574 0.416841 1.000000
1.000000 0.408577 1.000000
1.000000 0.396393 1.000000
1.000000 0.378384 1.000000
1.000000 0.351739 1.000000
0.000000 0.704414 1.000000
0.000000 0.703987 1.000000
0.205328 0.699150 1.000000
0.403511 0.695244 1.000000
0.689606 0.689606 1.000000
1.000000 0.681342 1.000000
1.000000 0.669158 1.000000
1.000000 0.651149 1.000000
1.000000 0.624504 1.000000
0.000000 1.000000 1.000000
0.000000 1.000000 1.000000
0.177529 1.000000 1.000000
0.375712 1.000000 1.000000
0.661806 1.000000 1.000000
1.000000 1.000000 1.000000
1.000000 1.000000 1.000000
1.000000 1.000000 1.000000
1.000000 1.000000 1.000000
0.000000 1.000000 1.000000
0.000000 1.000000 1.000000
0.136541 1.000000 1.000000
0.334724 1.000000 1.000000
0.620818 1.000000 1.000000
1.000000 1.000000 1.000000
1.000000 1.000000 1.000000
1.000000 1.000000 1.000000
1.000000 1.000000 1.000000
0.000000 1.000000 1.000000
0.000000 1.000000 1.000000
0.075958 1.000000 1.000000
0.274141 1.000000 1.000000
0.560235 1.000000 1.000000
0.979532 1.000000 1.000000
1.000000 1.000000 1.000000
1.000000 1.000000 1.000000
1.000000 1.000000 1.000000
0.000000 1.000000 1.000000
0.000000 1.000000 1.000000
0.000000 1.000000 1.000000
0.184504 1.000000 1.000000
0.470598 1.000000 1.000000
0.889895 1.000000 1.000000
1.000000 1.000000 1.000000
1.000000 1.000000 1.000000
1.000000 1.000000 1.000000
0.000000 0.000000 1.000000
0.003582 0.000000 1.000000
0.249030 0.000000 1.000000
0.447213 0.000000 1.000000
0.733307 0.000000 1.000000
1.000000 0.000000 1.000000
1.000000 0.000000 1.000000
1.000000 0.000000 1.000000
1.000000 0.000000 1.000000
0.000000 0.002572 1.000000
0.002145 0.002145 1.000000
0.247593 0.000000 1.000000
0.445776 0.000000 1.000000
0.731870 0.000000 1.000000
1.000000 0.000000 1.000000
1.000000 0.000000 1.000000
1.000000 0.000000 1.000000
1.000000 0.000000 1.000000
0.000000 0.236584 1.000000
0.000000 0.236157 1.000000
0.231320 0.231320 1.000000
0.429503 0.227414 1.000000
0.715597 0.221775 1.000000
1.000000 0.213512 1.000000
1.000000 0.201328 1.000000
1.000000 0.183319 1.000000
1.000000 0.156673 1.000000
0.000000 0.425534 1.000000
0.000000 0.425107 1.000000
0.218180 0.420269 1.000000
0.416364 0.416364 1.000000
0.702458 0.410725 1.000000
1.000000 0.402462 1.000000
1.000000 0.390277 1.000000
1.000000 0.372269 1.000000
1.000000 0.345623 1.000000
0.000000 0.698298 1.000000
0.000000 0.697871 1.000000
0.199212 0.693034 1.000000
0.397396 0.689128 1.000000
0.683490 0.683490 1.000000
1.000000 0.675226 1.000000
1.000000 0.663042 1.000000
1.000000 0.645033 1.000000
1.000000 0.618388 1.000000
0.000000 1.000000 1.000000
0.000000 1.000000 1.000000
0.171413 1.000000 1.000000
0.369596 1.000000 1.000000
0.655691 1.000000 1.000000
1.000000 1.000000 1.000000
1.000000 1.000000 1.000000
1.000000 1.000000 1.000000
1.000000 1.000000 1.000000
0.000000 1.000000 1.000000
0.000000 1.000000 1.000000
0.130425 1.000000 1.000000
0.328608 1.000000 1.000000
0.614703 1.000000 1.000000
1.000000 1.000000 1.000000
1.000000 1.000000 1.000000
1.000000 1.000000 1.000000
1.000000 1.000000 1.000000
0.000000 1.000000 1.000000
0.000000 1.000000 1.000000
0.069842 1.000000 1.000000
0.268025 1.000000 1.000000
0.554120 1.000000 1.000000
0.973417 1.000000 1.000000
1.000000 1.000000 1.000000
1.000000 1.000000 1.000000
1.000000 1.000000 1.000000
0.000000 1.000000 1.000000
0.000000 1.000000 1.000000
0.000000 1.000000 1.000000
0.178388 1.000000 1.000000
0.464482 1.000000 1.000000
0.883779 1.000000 1.000000
1.000000 1.000000 1.000000
1.000000 1.000000 1.000000
1.000000 1.000000 1.000000
0.000000 0.000000 1.000000
0.000000 0.000000 1.000000
0.239981 0.000000 1.000000
0.438164 0.000000 1.000000
0.724258 0.000000 1.000000
1.000000 0.000000 1.000000
1.000000 0.000000 1.000000
1.000000 0.000000 1.000000
1.000000 0.000000 1.000000
0.000000 0.000000 1.000000
0.000000 0.000000 1.000000
0.238544 0.000000 1.000000
0.436727 0.000000 1.000000
0.722821 0.000000 1.000000
1.000000 0.000000 1.000000
1.000000 0.000000 1.000000
1.000000 0.000000 1.000000
1.000000 0.000000 1.000000
0.000000 0.227535 1.000000
0.000000 0.227108 1.000000
0.222271 0.222271 1.000000
0.420454 0.218365 1.000000
0.706548 0.212726 1.000000
1.000000 0.204463 1.000000
1.000000 0.192279 1.000000
1.000000 0.174270 1.000000
1.000000 0.147624 1.000000
0.000000 0.416485 1.000000
0.000000 0.416058 1.000000
0.209131 0.411220 1.000000
0.407315 0.407315 1.000000
0.693409 0.401676 1.000000
1.000000 0.393413 1.000000
1.000000 0.381229 1.000000
1.000000 0.363220 1.000000
1.000000 0.336574 1.000000
0.000000 0.689249 1.000000
0.000000 0.688822 1.000000
0.190163 0.683985 1.000000
0.388347 0.680079 1.000000
0.674441 0.674441 1.000000
1.000000 0.666177 1.000000
1.000000 0.653993 1.000000
1.000000 0.635984 1.000000
1.000000 0.609339 1.000000
0.000000 1.000000 1.000000
0.000000 1.000000 1.000000
0.162364 1.000000 1.000000
0.360547 1.000000 1.000000
0.646642 1.000000 1.000000
1.000000 1.000000 1.000000
1.000000 1.000000 1.000000
1.000000 1.000000 1.000000
1.000000 1.000000 1.000000
0.000000 1.000000 1.000000
0.000000 1.000000 1.000000
0.121376 1.000000 1.000000
0.319559 1.000000 1.000000
0.605654 1.000000 1.000000
1.000000 1.000000 1.000000
1.000000 1.000000 1.000000
1.000000 1.000000 1.000000
1.000000 1.000000 1.000000
0.000000 1.000000 1.000000
0.000000 1.000000 1.000000
0.060793 1.000000 1.000000
0.258976 1.000000 1.000000
0.545071 1.000000 1.000000
0.964368 1.000000 1.000000
1.000000 1.000000 1.000000
1.000000 1.000000 1.000000
1.000000 1.000000 1.000000
0.000000 1.000000 1.000000
0.000000 1.000000 1.000000
0.000000 1.000000 1.000000
0.169339 1.000000 1.000000
0.455433 1.000000 1.000000
0.874730 1.000000 1.000000
1.000000 1.000000 1.000000
1.000000 1.000000 1.000000
1.000000 1.000000 1.000000
