assets/luts/nlog_to_rec709.cube
TITLE "N-Log to Rec.709 (builtin approx)"
LUT_3D_SIZE 5
LUT_3D_INPUT_RANGE 0.0 1.0
0.000000 0.000000 0.000000
0.267119 0.000000 0.000000
0.751396 0.000000 0.000000
1.000000 0.000000 0.000000
1.000000 0.000000 0.000000
0.000000 0.254673 0.000000
0.249409 0.249409 0.000000
0.733686 0.239865 0.000000
1.000000 0.219417 0.000000
1.000000 0.174763 0.000000
0.000000 0.716388 0.000000
0.217301 0.711123 0.000000
0.701579 0.701579 0.000000
1.000000 0.681131 0.000000
1.000000 0.636477 0.000000
0.000000 1.000000 0.000000
0.148514 1.000000 0.000000
0.632792 1.000000 0.000000
1.000000 1.000000 0.000000
1.000000 1.000000 0.000000
0.000000 1.000000 0.000000
0.000000 1.000000 0.000000
0.482571 1.000000 0.000000
1.000000 1.000000 0.000000
1.000000 1.000000 0.000000
0.000000 0.000000 0.270595
0.265331 0.000000 0.265331
0.749608 0.000000 0.255787
1.000000 0.000000 0.235339
1.000000 0.000000 0.190685
0.000000 0.252885 0.252885
0.247621 0.247621 0.247621
0.731898 0.238077 0.238077
1.000000 0.217629 0.217629
1.000000 0.172975 0.172975
0.000000 0.714600 0.220778
0.215514 0.709335 0.215514
0.699791 0.699791 0.205969
1.000000 0.679343 0.185522
1.000000 0.634689 0.140867
0.000000 1.000000 0.151991
0.146726 1.000000 0.146726
0.631004 1.000000 0.137182
1.000000 1.000000 0.116734
1.000000 1.000000 0.072080
0.000000 1.000000 0.001771
0.000000 1.000000 0.000000
0.480784 1.000000 0.000000
1.000000 1.000000 0.000000
1.000000 1.000000 0.000000
0.000000 0.000000 0.761176
0.262090 0.000000 0.755911
0.746367 0.000000 0.746367
1.000000 0.000000 0.725919
1.000000 0.000000 0.681265
0.000000 0.249644 0.743466
0.244380 0.244380 0.738201
0.728657 0.234835 0.728657
1.000000 0.214388 0.708210
1.000000 0.169733 0.663555
0.000000 0.711358 0.711358
0.212272 0.706094 0.706094
0.696550 0.696550 0.696550
1.000000 0.676102 0.676102
1.000000 0.631448 0.631448
0.000000 1.000000 0.642571
0.143485 1.000000 0.637307
0.627763 1.000000 0.627763
1.000000 1.000000 0.607315
1.000000 1.000000 0.562661
0.000000 1.000000 0.492351
0.000000 1.000000 0.487087
0.477542 1.000000 0.477542
1.000000 1.000000 0.457095
1.000000 1.000000 0.412440
0.000000 0.000000 1.000000
0.255145 0.000000 1.000000
0.739423 0.000000 1.000000
1.000000 0.000000 1.000000
1.000000 0.000000 1.000000
0.000000 0.242700 1.000000
0.237436 0.237436 1.000000
0.721713 0.227891 1.000000
1.000000 0.207444 1.000000
1.000000 0.162789 1.000000
0.000000 0.704414 1.000000
0.205328 0.699150 1.000000
0.689606 0.689606 1.000000
1.000000 0.669158 1.000000
1.000000 0.624504 1.000000
0.000000 1.000000 1.000000
0.136541 1.000000 1.000000
0.620818 1.000000 1.000000
1.000000 1.000000 1.000000
1.000000 1.000000 1.000000
0.000000 1.000000 1.000000
0.000000 1.000000 1.000000
0.470598 1.000000 1.000000
1.000000 1.000000 1.000000
1.000000 1.000000 1.000000
0.000000 0.000000 1.000000
0.239981 0.000000 1.000000
0.724258 0.000000 1.000000
1.000000 0.000000 1.000000
1.000000 0.000000 1.000000
0.000000 0.227535 1.000000
0.222271 0.222271 1.000000
0.706548 0.212726 1.000000
1.000000 0.192279 1.000000
1.000000 0.147624 1.000000
0.000000 0.689249 1.000000
0.190163 0.683985 1.000000
0.674441 0.674441 1.000000
1.000000 0.653993 1.000000
1.000000 0.609339 1.000000
0.000000 1.000000 1.000000
0.121376 1.000000 1.000000
0.605654 1.000000 1.000000
1.000000 1.000000 1.000000
1.000000 1.000000 1.000000
0.000000 1.000000 1.000000
0.000000 1.000000 1.000000
0.455433 1.000000 1.000000
1.000000 1.000000 1.000000
1.000000 1.000000 1.000000
