assets/luts/nlog_to_rec709.cube
TITLE "N-Log to Rec.709 (builtin approx)"
LUT_3D_SIZE 17
LUT_3D_INPUT_RANGE 0.0 1.0
0.000000 0.000000 0.000000
0.010836 0.000000 0.000000
0.021671 0.000000 0.000000
0.190472 0.000000 0.000000
0.267119 0.000000 0.000000
0.357477 0.000000 0.000000
0.465302 0.000000 0.000000
0.594909 0.000000 0.000000
0.751396 0.000000 0.000000
0.940870 0.000000 0.000000
1.000000 0.000000 0.000000
1.000000 0.000000 0.000000
1.000000 0.000000 0.000000
1.000000 0.000000 0.000000
1.000000 0.000000 0.000000
1.000000 0.000000 0.000000
1.000000 0.000000 0.000000
0.000000 0.010331 0.000000
0.010117 0.010117 0.000000
0.020953 0.009904 0.000000
0.189754 0.006577 0.000000
0.266400 0.005066 0.000000
0.356758 0.003285 0.000000
0.464584 0.001160 0.000000
0.594190 0.000000 0.000000
0.750678 0.000000 0.000000
0.940152 0.000000 0.000000
1.000000 0.000000 0.000000
1.000000 0.000000 0.000000
1.000000 0.000000 0.000000
1.000000 0.000000 0.000000
1.000000 0.000000 0.000000
1.000000 0.000000 0.000000
1.000000 0.000000 0.000000
0.000000 0.020661 0.000000
0.009399 0.020448 0.000000
0.020234 0.020234 0.000000
0.189036 0.016908 0.000000
0.265682 0.015397 0.000000
0.356040 0.013616 0.000000
0.463865 0.011491 0.000000
0.593472 0.008937 0.000000
0.749959 0.005853 0.000000
0.939433 0.002119 0.000000
1.000000 0.000000 0.000000
1.000000 0.000000 0.000000
1.000000 0.000000 0.000000
1.000000 0.000000 0.000000
1.000000 0.000000 0.000000
1.000000 0.000000 0.000000
1.000000 0.000000 0.000000
0.000000 0.181598 0.000000
0.000000 0.181384 0.000000
0.009043 0.181171 0.000000
0.177844 0.177844 0.000000
0.254490 0.176334 0.000000
0.344849 0.174553 0.000000
0.452674 0.172428 0.000000
0.582280 0.169873 0.000000
0.738768 0.166789 0.000000
0.928242 0.163055 0.000000
1.000000 0.158526 0.000000
1.000000 0.153026 0.000000
1.000000 0.146342 0.000000
1.000000 0.138216 0.000000
1.000000 0.128333 0.000000
1.000000 0.116312 0.000000
1.000000 0.101687 0.000000
0.000000 0.254673 0.000000
0.000000 0.254460 0.000000
0.003961 0.254246 0.000000
0.172763 0.250919 0.000000
0.249409 0.249409 0.000000
0.339767 0.247628 0.000000
0.447592 0.245503 0.000000
0.577199 0.242949 0.000000
0.733686 0.239865 0.000000
0.923160 0.236130 0.000000
1.000000 0.231601 0.000000
1.000000 0.226101 0.000000
1.000000 0.219417 0.000000
1.000000 0.211291 0.000000
1.000000 0.201408 0.000000
1.000000 0.189387 0.000000
1.000000 0.174763 0.000000
0.000000 0.340821 0.000000
0.000000 0.340608 0.000000
0.000000 0.340394 0.000000
0.166772 0.337068 0.000000
0.243418 0.335557 0.000000
0.333776 0.333776 0.000000
0.441601 0.331651 0.000000
0.571208 0.329097 0.000000
0.727696 0.326013 0.000000
0.917170 0.322279 0.000000
1.000000 0.317749 0.000000
1.000000 0.312249 0.000000
1.000000 0.305565 0.000000
1.000000 0.297439 0.000000
1.000000 0.287556 0.000000
1.000000 0.275535 0.000000
1.000000 0.260911 0.000000
0.000000 0.443623 0.000000
0.000000 0.443409 0.000000
0.000000 0.443196 0.000000
0.159623 0.439869 0.000000
0.236269 0.438358 0.000000
0.326628 0.436578 0.000000
0.434453 0.434453 0.000000
0.564059 0.431898 0.000000
0.720547 0.428814 0.000000
0.910021 0.425080 0.000000
1.000000 0.420551 0.000000
1.000000 0.415050 0.000000
1.000000 0.408367 0.000000
1.000000 0.400240 0.000000
1.000000 0.390358 0.000000
1.000000 0.378336 0.000000
1.000000 0.363712 0.000000
0.000000 0.567191 0.000000
0.000000 0.566978 0.000000
0.000000 0.566764 0.000000
0.151030 0.563437 0.000000
0.227676 0.561927 0.000000
0.318035 0.560146 0.000000
0.425860 0.558021 0.000000
0.555467 0.555467 0.000000
0.711954 0.552382 0.000000
0.901428 0.548648 0.000000
1.000000 0.544119 0.000000
1.000000 0.538619 0.000000
1.000000 0.531935 0.000000
1.000000 0.523809 0.000000
1.000000 0.513926 0.000000
1.000000 0.501905 0.000000
1.000000 0.487280 0.000000
0.000000 0.716388 0.000000
0.000000 0.716174 0.000000
0.000000 0.715960 0.000000
0.140655 0.712634 0.000000
0.217301 0.711123 0.000000
0.307660 0.709342 0.000000
0.415485 0.707217 0.000000
0.545091 0.704663 0.000000
0.701579 0.701579 0.000000
0.891053 0.697845 0.000000
1.000000 0.693315 0.000000
1.000000 0.687815 0.000000
1.000000 0.681131 0.000000
1.000000 0.673005 0.000000
1.000000 0.663122 0.000000
1.000000 0.651101 0.000000
1.000000 0.636477 0.000000
0.000000 0.897034 0.000000
0.000000 0.896820 0.000000
0.000000 0.896607 0.000000
0.128093 0.893280 0.000000
0.204739 0.891769 0.000000
0.295098 0.889989 0.000000
0.402923 0.887864 0.000000
0.532529 0.885309 0.000000
0.689017 0.882225 0.000000
0.878491 0.878491 0.000000
1.000000 0.873962 0.000000
1.000000 0.868461 0.000000
1.000000 0.861777 0.000000
1.000000 0.853651 0.000000
1.000000 0.843769 0.000000
1.000000 0.831747 0.000000
1.000000 0.817123 0.000000
0.000000 1.000000 0.000000
0.000000 1.000000 0.000000
0.000000 1.000000 0.000000
0.112856 1.000000 0.000000
0.189502 1.000000 0.000000
0.279860 1.000000 0.000000
0.387685 1.000000 0.000000
0.517292 1.000000 0.000000
0.673780 1.000000 0.000000
0.863254 1.000000 0.000000
1.000000 1.000000 0.000000
1.000000 1.000000 0.000000
1.000000 1.000000 0.000000
1.000000 1.000000 0.000000
1.000000 1.000000 0.000000
1.000000 1.000000 0.000000
1.000000 1.000000 0.000000
0.000000 1.000000 0.000000
0.000000 1.000000 0.000000
0.000000 1.000000 0.000000
0.094353 1.000000 0.000000
0.170999 1.000000 0.000000
0.261357 1.000000 0.000000
0.369183 1.000000 0.000000
0.498789 1.000000 0.000000
0.655277 1.000000 0.000000
0.844751 1.000000 0.000000
1.000000 1.000000 0.000000
1.000000 1.000000 0.000000
1.000000 1.000000 0.000000
1.000000 1.000000 0.000000
1.000000 1.000000 0.000000
1.000000 1.000000 0.000000
1.000000 1.000000 0.000000
0.000000 1.000000 0.000000
0.000000 1.000000 0.000000
0.000000 1.000000 0.000000
0.071868 1.000000 0.000000
0.148514 1.000000 0.000000
0.238872 1.000000 0.000000
0.346697 1.000000 0.000000
0.476304 1.000000 0.000000
0.632792 1.000000 0.000000
0.822266 1.000000 0.000000
1.000000 1.000000 0.000000
1.000000 1.000000 0.000000
1.000000 1.000000 0.000000
1.000000 1.000000 0.000000
1.000000 1.000000 0.000000
1.000000 1.000000 0.000000
1.000000 1.000000 0.000000
0.000000 1.000000 0.000000
0.000000 1.000000 0.000000
0.000000 1.000000 0.000000
0.044531 1.000000 0.000000
0.121177 1.000000 0.000000
0.211535 1.000000 0.000000
0.319360 1.000000 0.000000
0.448967 1.000000 0.000000
0.605455 1.000000 0.000000
0.794929 1.000000 0.000000
1.000000 1.000000 0.000000
1.000000 1.000000 0.000000
1.000000 1.000000 0.000000
1.000000 1.000000 0.000000
1.000000 1.000000 0.000000
1.000000 1.000000 0.000000
1.000000 1.000000 0.000000
0.000000 1.000000 0.000000
0.000000 1.000000 0.000000
0.000000 1.000000 0.000000
0.011285 1.000000 0.000000
0.087931 1.000000 0.000000
0.178289 1.000000 0.000000
0.286114 1.000000 0.000000
0.415721 1.000000 0.000000
0.572209 1.000000 0.000000
0.761683 1.000000 0.000000
0.991506 1.000000 0.000000
1.000000 1.000000 0.000000
1.000000 1.000000 0.000000
1.000000 1.000000 0.000000
1.000000 1.000000 0.000000
1.000000 1.000000 0.000000
1.000000 1.000000 0.000000
0.000000 1.000000 0.000000
0.000000 1.000000 0.000000
0.000000 1.000000 0.000000
0.000000 1.000000 0.000000
0.047491 1.000000 0.000000
0.137849 1.000000 0.000000
0.245674 1.000000 0.000000
0.375281 1.000000 0.000000
0.531769 1.000000 0.000000
0.721243 1.000000 0.000000
0.951066 1.000000 0.000000
1.000000 1.000000 0.000000
1.000000 1.000000 0.000000
1.000000 1.000000 0.000000
1.000000 1.000000 0.000000
1.000000 1.000000 0.000000
1.000000 1.000000 0.000000
0.000000 1.000000 0.000000
0.000000 1.000000 0.000000
0.000000 1.000000 0.000000
0.000000 1.000000 0.000000
0.000000 1.000000 0.000000
0.088652 1.000000 0.000000
0.196477 1.000000 0.000000
0.326084 1.000000 0.000000
0.482571 1.000000 0.000000
0.672046 1.000000 0.000000
0.901868 1.000000 0.000000
1.000000 1.000000 0.000000
1.000000 1.000000 0.000000
1.000000 1.000000 0.000000
1.000000 1.000000 0.000000
1.000000 1.000000 0.000000
1.000000 1.000000 0.000000
0.000000 0.000000 0.010977
0.010763 0.000000 0.010763
0.021599 0.000000 0.010549
0.190400 0.000000 0.007223
0.267046 0.000000 0.005712
0.357404 0.000000 0.003931
0.465229 0.000000 0.001806
0.594836 0.000000 0.000000
0.751324 0.000000 0.000000
0.940798 0.000000 0.000000
1.000000 0.000000 0.000000
1.000000 0.000000 0.000000
1.000000 0.000000 0.000000
1.000000 0.000000 0.000000
1.000000 0.000000 0.000000
1.000000 0.000000 0.000000
1.000000 0.000000 0.000000
0.000000 0.010258 0.010258
0.010045 0.010045 0.010045
0.020880 0.009831 0.009831
0.189682 0.006504 0.006504
0.266328 0.004994 0.004994
0.356686 0.003213 0.003213
0.464511 0.001088 0.001088
0.594118 0.000000 0.000000
0.750605 0.000000 0.000000
0.940079 0.000000 0.000000
1.000000 0.000000 0.000000
1.000000 0.000000 0.000000
1.000000 0.000000 0.000000
1.000000 0.000000 0.000000
1.000000 0.000000 0.000000
1.000000 0.000000 0.000000
1.000000 0.000000 0.000000
0.000000 0.020589 0.009540
0.009326 0.020375 0.009326
0.020162 0.020162 0.009113
0.188963 0.016835 0.005786
0.265609 0.015324 0.004275
0.355968 0.013544 0.002495
0.463793 0.011419 0.000370
0.593399 0.008864 0.000000
0.749887 0.005780 0.000000
0.939361 0.002046 0.000000
1.000000 0.000000 0.000000
1.000000 0.000000 0.000000
1.000000 0.000000 0.000000
1.000000 0.000000 0.000000
1.000000 0.000000 0.000000
1.000000 0.000000 0.000000
1.000000 0.000000 0.000000
0.000000 0.181526 0.000000
0.000000 0.181312 0.000000
0.008970 0.181098 0.000000
0.177772 0.177772 0.000000
0.254418 0.176261 0.000000
0.344776 0.174480 0.000000
0.452601 0.172355 0.000000
0.582208 0.169801 0.000000
0.738695 0.166717 0.000000
0.928169 0.162983 0.000000
1.000000 0.158453 0.000000
1.000000 0.152953 0.000000
1.000000 0.146269 0.000000
1.000000 0.138143 0.000000
1.000000 0.128260 0.000000
1.000000 0.116239 0.000000
1.000000 0.101615 0.000000
0.000000 0.254601 0.000000
0.000000 0.254387 0.000000
0.003889 0.254174 0.000000
0.172690 0.250847 0.000000
0.249336 0.249336 0.000000
0.339694 0.247555 0.000000
0.447520 0.245430 0.000000
0.577126 0.242876 0.000000
0.733614 0.239792 0.000000
0.923088 0.236058 0.000000
1.000000 0.231528 0.000000
1.000000 0.226028 0.000000
1.000000 0.219344 0.000000
1.000000 0.211218 0.000000
1.000000 0.201335 0.000000
1.000000 0.189314 0.000000
1.000000 0.174690 0.000000
0.000000 0.340749 0.000000
0.000000 0.340535 0.000000
0.000000 0.340322 0.000000
0.166699 0.336995 0.000000
0.243346 0.335485 0.000000
0.333704 0.333704 0.000000
0.441529 0.331579 0.000000
0.571136 0.329024 0.000000
0.727623 0.325940 0.000000
0.917097 0.322206 0.000000
1.000000 0.317677 0.000000
1.000000 0.312177 0.000000
1.000000 0.305493 0.000000
1.000000 0.297366 0.000000
1.000000 0.287484 0.000000
1.000000 0.275463 0.000000
1.000000 0.260838 0.000000
0.000000 0.443550 0.000000
0.000000 0.443337 0.000000
0.000000 0.443123 0.000000
0.159551 0.439796 0.000000
0.236197 0.438286 0.000000
0.326555 0.436505 0.000000
0.434380 0.434380 0.000000
0.563987 0.431826 0.000000
0.720474 0.428742 0.000000
0.909948 0.425008 0.000000
1.000000 0.420478 0.000000
1.000000 0.414978 0.000000
1.000000 0.408294 0.000000
1.000000 0.400168 0.000000
1.000000 0.390285 0.000000
1.000000 0.378264 0.000000
1.000000 0.363640 0.000000
0.000000 0.567119 0.000000
0.000000 0.566905 0.000000
0.000000 0.566691 0.000000
0.150958 0.563365 0.000000
0.227604 0.561854 0.000000
0.317962 0.560073 0.000000
0.425787 0.557948 0.000000
0.555394 0.555394 0.000000
0.711881 0.552310 0.000000
0.901356 0.548576 0.000000
1.000000 0.544046 0.000000
1.000000 0.538546 0.000000
1.000000 0.531862 0.000000
1.000000 0.523736 0.000000
1.000000 0.513853 0.000000
1.000000 0.501832 0.000000
1.000000 0.487208 0.000000
0.000000 0.716315 0.000000
0.000000 0.716101 0.000000
0.000000 0.715888 0.000000
0.140583 0.712561 0.000000
0.217229 0.711051 0.000000
0.307587 0.709270 0.000000
0.415412 0.707145 0.000000
0.545019 0.704590 0.000000
0.701506 0.701506 0.000000
0.890980 0.697772 0.000000
1.000000 0.693243 0.000000
1.000000 0.687743 0.000000
1.000000 0.681059 0.000000
1.000000 0.672933 0.000000
1.000000 0.663050 0.000000
1.000000 0.651029 0.000000
1.000000 0.636404 0.000000
0.000000 0.896961 0.000000
0.000000 0.896748 0.000000
0.000000 0.896534 0.000000
0.128021 0.893207 0.000000
0.204667 0.891697 0.000000
0.295025 0.889916 0.000000
0.402850 0.887791 0.000000
0.532457 0.885237 0.000000
0.688944 0.882153 0.000000
0.878418 0.878418 0.000000
1.000000 0.873889 0.000000
1.000000 0.868389 0.000000
1.000000 0.861705 0.000000
1.000000 0.853579 0.000000
1.000000 0.843696 0.000000
1.000000 0.831675 0.000000
1.000000 0.817051 0.000000
0.000000 1.000000 0.000000
0.000000 1.000000 0.000000
0.000000 1.000000 0.000000
0.112783 1.000000 0.000000
0.189430 1.000000 0.000000
0.279788 1.000000 0.000000
0.387613 1.000000 0.000000
0.517220 1.000000 0.000000
0.673707 1.000000 0.000000
0.863181 1.000000 0.000000
1.000000 1.000000 0.000000
1.000000 1.000000 0.000000
1.000000 1.000000 0.000000
1.000000 1.000000 0.000000
1.000000 1.000000 0.000000
1.000000 1.000000 0.000000
1.000000 1.000000 0.000000
0.000000 1.000000 0.000000
0.000000 1.000000 0.000000
0.000000 1.000000 0.000000
0.094281 1.000000 0.000000
0.170927 1.000000 0.000000
0.261285 1.000000 0.000000
0.369110 1.000000 0.000000
0.498717 1.000000 0.000000
0.655204 1.000000 0.000000
0.844678 1.000000 0.000000
1.000000 1.000000 0.000000
1.000000 1.000000 0.000000
1.000000 1.000000 0.000000
1.000000 1.000000 0.000000
1.000000 1.000000 0.000000
1.000000 1.000000 0.000000
1.000000 1.000000 0.000000
0.000000 1.000000 0.000000
0.000000 1.000000 0.000000
0.000000 1.000000 0.000000
0.071795 1.000000 0.000000
0.148442 1.000000 0.000000
0.238800 1.000000 0.000000
0.346625 1.000000 0.000000
0.476232 1.000000 0.000000
0.632719 1.000000 0.000000
0.822193 1.000000 0.000000
1.000000 1.000000 0.000000
1.000000 1.000000 0.000000
1.000000 1.000000 0.000000
1.000000 1.000000 0.000000
1.000000 1.000000 0.000000
1.000000 1.000000 0.000000
1.000000 1.000000 0.000000
0.000000 1.000000 0.000000
0.000000 1.000000 0.000000
0.000000 1.000000 0.000000
0.044458 1.000000 0.000000
0.121105 1.000000 0.000000
0.211463 1.000000 0.000000
0.319288 1.000000 0.000000
0.448895 1.000000 0.000000
0.605382 1.000000 0.000000
0.794856 1.000000 0.000000
1.000000 1.000000 0.000000
1.000000 1.000000 0.000000
1.000000 1.000000 0.000000
1.000000 1.000000 0.000000
1.000000 1.000000 0.000000
1.000000 1.000000 0.000000
1.000000 1.000000 0.000000
0.000000 1.000000 0.000000
0.000000 1.000000 0.000000
0.000000 1.000000 0.000000
0.011212 1.000000 0.000000
0.087859 1.000000 0.000000
0.178217 1.000000 0.000000
0.286042 1.000000 0.000000
0.415649 1.000000 0.000000
0.572136 1.000000 0.000000
0.761610 1.000000 0.000000
0.991433 1.000000 0.000000
1.000000 1.000000 0.000000
1.000000 1.000000 0.000000
1.000000 1.000000 0.000000
1.000000 1.000000 0.000000
1.000000 1.000000 0.000000
1.000000 1.000000 0.000000
0.000000 1.000000 0.000000
0.000000 1.000000 0.000000
0.000000 1.000000 0.000000
0.000000 1.000000 0.000000
0.047419 1.000000 0.000000
0.137777 1.000000 0.000000
0.245602 1.000000 0.000000
0.375209 1.000000 0.000000
0.531696 1.000000 0.000000
0.721170 1.000000 0.000000
0.950993 1.000000 0.000000
1.000000 1.000000 0.000000
1.000000 1.000000 0.000000
1.000000 1.000000 0.000000
1.000000 1.000000 0.000000
1.000000 1.000000 0.000000
1.000000 1.000000 0.000000
0.000000 1.000000 0.000000
0.000000 1.000000 0.000000
0.000000 1.000000 0.000000
0.000000 1.000000 0.000000
0.000000 1.000000 0.000000
0.088580 1.000000 0.000000
0.196405 1.000000 0.000000
0.326012 1.000000 0.000000
0.482499 1.000000 0.000000
0.671973 1.000000 0.000000
0.901796 1.000000 0.000000
1.000000 1.000000 0.000000
1.000000 1.000000 0.000000
1.000000 1.000000 0.000000
1.000000 1.000000 0.000000
1.000000 1.000000 0.000000
1.000000 1.000000 0.000000
0.000000 0.000000 0.021953
0.010691 0.000000 0.021740
0.021526 0.000000 0.021526
0.190327 0.000000 0.018199
0.266974 0.000000 0.016689
0.357332 0.000000 0.014908
0.465157 0.000000 0.012783
0.594764 0.000000 0.010229
0.751251 0.000000 0.007145
0.940725 0.000000 0.003410
1.000000 0.000000 0.000000
1.000000 0.000000 0.000000
1.000000 0.000000 0.000000
1.000000 0.000000 0.000000
1.000000 0.000000 0.000000
1.000000 0.000000 0.000000
1.000000 0.000000 0.000000
0.000000 0.010186 0.021235
0.009972 0.009972 0.021021
0.020808 0.009759 0.020808
0.189609 0.006432 0.017481
0.266255 0.004921 0.015970
0.356613 0.003140 0.014190
0.464439 0.001015 0.012065
0.594045 0.000000 0.009510
0.750533 0.000000 0.006426
0.940007 0.000000 0.002692
1.000000 0.000000 0.000000
1.000000 0.000000 0.000000
1.000000 0.000000 0.000000
1.000000 0.000000 0.000000
1.000000 0.000000 0.000000
1.000000 0.000000 0.000000
1.000000 0.000000 0.000000
0.000000 0.020516 0.020516
0.009254 0.020303 0.020303
0.020089 0.020089 0.020089
0.188891 0.016763 0.016763
0.265537 0.015252 0.015252
0.355895 0.013471 0.013471
0.463720 0.011346 0.011346
0.593327 0.008792 0.008792
0.749814 0.005708 0.005708
0.939288 0.001974 0.001974
1.000000 0.000000 0.000000
1.000000 0.000000 0.000000
1.000000 0.000000 0.000000
1.000000 0.000000 0.000000
1.000000 0.000000 0.000000
1.000000 0.000000 0.000000
1.000000 0.000000 0.000000
0.000000 0.181453 0.009325
0.000000 0.181239 0.009111
0.008898 0.181026 0.008898
0.177699 0.177699 0.005571
0.254345 0.176189 0.004061
0.344704 0.174408 0.002280
0.452529 0.172283 0.000155
0.582135 0.169728 0.000000
0.738623 0.166644 0.000000
0.928097 0.162910 0.000000
1.000000 0.158381 0.000000
1.000000 0.152881 0.000000
1.000000 0.146197 0.000000
1.000000 0.138071 0.000000
1.000000 0.128188 0.000000
1.000000 0.116167 0.000000
1.000000 0.101542 0.000000
0.000000 0.254528 0.004243
0.000000 0.254315 0.004030
0.003816 0.254101 0.003816
0.172618 0.250774 0.000489
0.249264 0.249264 0.000000
0.339622 0.247483 0.000000
0.447447 0.245358 0.000000
0.577054 0.242804 0.000000
0.733541 0.239719 0.000000
0.923015 0.235985 0.000000
1.000000 0.231456 0.000000
1.000000 0.225956 0.000000
1.000000 0.219272 0.000000
1.000000 0.211146 0.000000
1.000000 0.201263 0.000000
1.000000 0.189242 0.000000
1.000000 0.174617 0.000000
0.000000 0.340676 0.000000
0.000000 0.340463 0.000000
0.000000 0.340249 0.000000
0.166627 0.336923 0.000000
0.243273 0.335412 0.000000
0.333631 0.333631 0.000000
0.441456 0.331506 0.000000
0.571063 0.328952 0.000000
0.727551 0.325868 0.000000
0.917025 0.322134 0.000000
1.000000 0.317604 0.000000
1.000000 0.312104 0.000000
1.000000 0.305420 0.000000
1.000000 0.297294 0.000000
1.000000 0.287411 0.000000
1.000000 0.275390 0.000000
1.000000 0.260766 0.000000
0.000000 0.443478 0.000000
0.000000 0.443264 0.000000
0.000000 0.443051 0.000000
0.159478 0.439724 0.000000
0.236124 0.438213 0.000000
0.326482 0.436433 0.000000
0.434308 0.434308 0.000000
0.563914 0.431753 0.000000
0.720402 0.428669 0.000000
0.909876 0.424935 0.000000
1.000000 0.420406 0.000000
1.000000 0.414905 0.000000
1.000000 0.408222 0.000000
1.000000 0.400095 0.000000
1.000000 0.390213 0.000000
1.000000 0.378191 0.000000
1.000000 0.363567 0.000000
0.000000 0.567046 0.000000
0.000000 0.566833 0.000000
0.000000 0.566619 0.000000
0.150885 0.563292 0.000000
0.227531 0.561782 0.000000
0.317890 0.560001 0.000000
0.425715 0.557876 0.000000
0.555321 0.555321 0.000000
0.711809 0.552237 0.000000
0.901283 0.548503 0.000000
1.000000 0.543974 0.000000
1.000000 0.538474 0.000000
1.000000 0.531790 0.000000
1.000000 0.523664 0.000000
1.000000 0.513781 0.000000
1.000000 0.501760 0.000000
1.000000 0.487135 0.000000
0.000000 0.716243 0.000000
0.000000 0.716029 0.000000
0.000000 0.715815 0.000000
0.140510 0.712489 0.000000
0.217156 0.710978 0.000000
0.307515 0.709197 0.000000
0.415340 0.707072 0.000000
0.544946 0.704518 0.000000
0.701434 0.701434 0.000000
0.890908 0.697700 0.000000
1.000000 0.693170 0.000000
1.000000 0.687670 0.000000
1.000000 0.680986 0.000000
1.000000 0.672860 0.000000
1.000000 0.662977 0.000000
1.000000 0.650956 0.000000
1.000000 0.636332 0.000000
0.000000 0.896889 0.000000
0.000000 0.896675 0.000000
0.000000 0.896462 0.000000
0.127948 0.893135 0.000000
0.204594 0.891624 0.000000
0.294952 0.889844 0.000000
0.402778 0.887719 0.000000
0.532384 0.885164 0.000000
0.688872 0.882080 0.000000
0.878346 0.878346 0.000000
1.000000 0.873817 0.000000
1.000000 0.868316 0.000000
1.000000 0.861632 0.000000
1.000000 0.853506 0.000000
1.000000 0.843624 0.000000
1.000000 0.831602 0.000000
1.000000 0.816978 0.000000
0.000000 1.000000 0.000000
0.000000 1.000000 0.000000
0.000000 1.000000 0.000000
0.112711 1.000000 0.000000
0.189357 1.000000 0.000000
0.279715 1.000000 0.000000
0.387540 1.000000 0.000000
0.517147 1.000000 0.000000
0.673635 1.000000 0.000000
0.863109 1.000000 0.000000
1.000000 1.000000 0.000000
1.000000 1.000000 0.000000
1.000000 1.000000 0.000000
1.000000 1.000000 0.000000
1.000000 1.000000 0.000000
1.000000 1.000000 0.000000
1.000000 1.000000 0.000000
0.000000 1.000000 0.000000
0.000000 1.000000 0.000000
0.000000 1.000000 0.000000
0.094208 1.000000 0.000000
0.170854 1.000000 0.000000
0.261212 1.000000 0.000000
0.369037 1.000000 0.000000
0.498644 1.000000 0.000000
0.655132 1.000000 0.000000
0.844606 1.000000 0.000000
1.000000 1.000000 0.000000
1.000000 1.000000 0.000000
1.000000 1.000000 0.000000
1.000000 1.000000 0.000000
1.000000 1.000000 0.000000
1.000000 1.000000 0.000000
1.000000 1.000000 0.000000
0.000000 1.000000 0.000000
0.000000 1.000000 0.000000
0.000000 1.000000 0.000000
0.071723 1.000000 0.000000
0.148369 1.000000 0.000000
0.238727 1.000000 0.000000
0.346552 1.000000 0.000000
0.476159 1.000000 0.000000
0.632647 1.000000 0.000000
0.822121 1.000000 0.000000
1.000000 1.000000 0.000000
1.000000 1.000000 0.000000
1.000000 1.000000 0.000000
1.000000 1.000000 0.000000
1.000000 1.000000 0.000000
1.000000 1.000000 0.000000
1.000000 1.000000 0.000000
0.000000 1.000000 0.000000
0.000000 1.000000 0.000000
0.000000 1.000000 0.000000
0.044386 1.000000 0.000000
0.121032 1.000000 0.000000
0.211390 1.000000 0.000000
0.319215 1.000000 0.000000
0.448822 1.000000 0.000000
0.605310 1.000000 0.000000
0.794784 1.000000 0.000000
1.000000 1.000000 0.000000
1.000000 1.000000 0.000000
1.000000 1.000000 0.000000
1.000000 1.000000 0.000000
1.000000 1.000000 0.000000
1.000000 1.000000 0.000000
1.000000 1.000000 0.000000
0.000000 1.000000 0.000000
0.000000 1.000000 0.000000
0.000000 1.000000 0.000000
0.011140 1.000000 0.000000
0.087786 1.000000 0.000000
0.178144 1.000000 0.000000
0.285969 1.000000 0.000000
0.415576 1.000000 0.000000
0.572064 1.000000 0.000000
0.761538 1.000000 0.000000
0.991361 1.000000 0.000000
1.000000 1.000000 0.000000
1.000000 1.000000 0.000000
1.000000 1.000000 0.000000
1.000000 1.000000 0.000000
1.000000 1.000000 0.000000
1.000000 1.000000 0.000000
0.000000 1.000000 0.000000
0.000000 1.000000 0.000000
0.000000 1.000000 0.000000
0.000000 1.000000 0.000000
0.047346 1.000000 0.000000
0.137704 1.000000 0.000000
0.245529 1.000000 0.000000
0.375136 1.000000 0.000000
0.531624 1.000000 0.000000
0.721098 1.000000 0.000000
0.950921 1.000000 0.000000
1.000000 1.000000 0.000000
1.000000 1.000000 0.000000
1.000000 1.000000 0.000000
1.000000 1.000000 0.000000
1.000000 1.000000 0.000000
1.000000 1.000000 0.000000
0.000000 1.000000 0.000000
0.000000 1.000000 0.000000
0.000000 1.000000 0.000000
0.000000 1.000000 0.000000
0.000000 1.000000 0.000000
0.088507 1.000000 0.000000
0.196332 1.000000 0.000000
0.325939 1.000000 0.000000
0.482426 1.000000 0.000000
0.671901 1.000000 0.000000
0.901723 1.000000 0.000000
1.000000 1.000000 0.000000
1.000000 1.000000 0.000000
1.000000 1.000000 0.000000
1.000000 1.000000 0.000000
1.000000 1.000000 0.000000
1.000000 1.000000 0.000000
0.000000 0.000000 0.192951
0.009561 0.000000 0.192738
0.020396 0.000000 0.192524
0.189198 0.000000 0.189198
0.265844 0.000000 0.187687
0.356202 0.000000 0.185906
0.464027 0.000000 0.183781
0.593634 0.000000 0.181227
0.750121 0.000000 0.178143
0.939595 0.000000 0.174409
1.000000 0.000000 0.169879
1.000000 0.000000 0.164379
1.000000 0.000000 0.157695
1.000000 0.000000 0.149569
1.000000 0.000000 0.139686
1.000000 0.000000 0.127665
1.000000 0.000000 0.113041
0.000000 0.009056 0.192233
